X:1
T:Stock Island, 76.76 D
T:Stock Island, 76.76 D
T:H. R. Jeffrey, 1885
T:Public Domain Courtesy of the Cyber Hymnal™
C:H. R. Jeffrey, 1885
Z:Public Domain
Z:Courtesy of the Cyber Hymnal™
%%score ( 1 2 ) ( 3 4 )
L:1/8
Q:1/4=105
M:4/4
K:Ab
V:1 treble 
V:2 treble 
V:3 bass 
V:4 bass 
V:1
 ([A,C][B,D]) | [CE]3 [CE] [DF]2 [CE]2 | [CE] [CA]3- [CA]2 [Ec]2 | [DB]3 [CA] [DB]2 [Ec]2 | %4
 [CA]6 ([A,C][B,D]) | [CE]3 [CE] [DF]2 [CE]2 | [CE] [CA]3- [CA]2 [Ec]2 | [DB]3 [CA] [DB]2 [Ec]2 | %8
 [CA]6 ([CA][DB]) | [Ec]3 [DB] [CA]2 [Ec]2 | [Ee] [Ee]3- [Ee]2 ([Ec][=EB]) | %11
 [FA]3 [FA] (BA) [DF]2 | [CE]6 ([A,C][B,D]) | [CE]3 [CE] [DF]2 [CE]2 | [CE] [CA]3- [CA]2 [Ec]2 | %15
 [DB]3 [CA] [DB]2 [Ec]2 | [CA]6 |] %17
V:2
 x2 | x8 | x8 | x8 | x8 | x8 | x8 | x8 | x8 | x8 | x8 | x4 F2 x2 | x8 | x8 | x8 | x8 | x6 |] %17
V:3
 ([A,,E,][A,,E,]) | [A,,A,]3 [A,,A,] [A,,A,]2 [A,,A,]2 | [A,,A,] [A,,E,]3- [A,,E,]2 [A,,A,]2 | %3
 [E,G,]3 [E,F,] [E,G,]2 [E,G,]2 | [A,,A,]6 ([A,,E,][A,,E,]) | [A,,A,]3 [A,,A,] [A,,A,]2 [A,,A,]2 | %6
 [A,,A,] [A,,E,]3- [A,,E,]2 [A,,A,]2 | [E,G,]3 [E,F,] [E,G,]2 [E,G,]2 | [A,,A,]6 A,A, | %9
 A,3 A, A,2 A,2 | [A,C] [A,C]3- [A,C]2 A,[C,G,] | [D,A,]3 [D,D] [D,D]2 [D,A,]2 | %12
 [A,,A,]6 ([A,,E,][A,,E,]) | [A,,A,]3 [A,,A,] [A,,A,]2 [A,,A,]2 | %14
 [A,,A,] [A,,E,]3- [A,,E,]2 [A,,A,]2 | [E,G,]3 [E,F,] [E,G,]2 [E,G,]2 | [A,,A,]6 |] %17
V:4
 x2 | x8 | x8 | x8 | x8 | x8 | x8 | x8 | x6 (A,A,) | A,3 A, A,2 A,2 | x6 A, x | x8 | x8 | x8 | x8 | %15
 x8 | x6 |] %17

